X:2985
T:Save, save Br\aende
C:anon.
O:Denmark
R:Sangleg
Z:Transcribed by Frank Nordberg - http://www.musicaviva.com
F:http://abc.musicaviva.com/tunes/denmark/save-save-braende/save-save-braende-1.abc
M:2/4
L:1/8
K:F
"F"FFCC|"F"F2C2|"F"FFCC|"F"F2C2|
w:Sa-ve, sa-ve Br\aen-de! Vi er ras-ke Sven-de!
"F"FAcc|"C7"BBG2|"C7"EGBB|"F"AAF2|
w:Du til dig, og jeg til mig, hver maa tr\aek-ke rask til sig.
"Gm"DEFG|"C"E2"F"F2|"Gm"DEFG|"C7"G2"F"F2|]
w:Saa-dan skal det v\ae-re, saa-dan skal det v\ae-re!
W:
W:Save, save Br\aende!
W:Vi er raske Svende!
W:Du til dig, og jeg til mig,
W:hver maa tr\aekke rask til sig.
W:Saadan skal det v\aere,
W:saadan skal det v\aere!
W:
W:
W:  From Musica Viva - http://www.musicaviva.com
W:  the Internet center for free sheet music downloads.

